X:1
T: Kittle Cattle
C:
R:Reel
Q: 232
K:Bb
M:4/4
L:1/8
|:d|B2 FE DB, B,D|Cc cB AB cd|B2 FE DB, DF|Gc AF B3d|
B2 FE DB, B,D|Cc cB AB cd|B2 FE DB, DF|Gc AF B3d|
Bc de fB dB|ed cB AF GA|Bc de fd Bd|ce cA B3d|
Bc de fB dB|ed cB AF GA|B2 FE DB, DF|Gc AF B3:|
